icons/Ambulance_filled.svg

<svg width="24" height="24" viewBox="0 0 24 24" fill="none" xmlns="http://www.w3.org/2000/svg">
<path fill-rule="evenodd" clip-rule="evenodd" d="M0.75,6.5c0,-0.9665 0.7835,-1.75 1.75,-1.75h11.5h1.8127c1.0064,0 1.9324,0.54969 2.4142,1.43316l2.3963,4.39314l2.2212,2.6654c0.2621,0.3145 0.4056,0.711 0.4056,1.1204v2.1379c0,0.9665 -0.7835,1.75 -1.75,1.75h-0.3535c-0.3265,1.1543 -1.3877,2 -2.6465,2c-1.2588,0 -2.32,-0.8457 -2.6465,-2h-1.8535h-5.85352c-0.32646,1.1543 -1.3877,2 -2.64648,2c-1.25878,0 -2.32002,-0.8457 -2.64648,-2h-0.35352c-0.9665,0 -1.75,-0.7835 -1.75,-1.75zM19.75,17.5c0,-0.6904 -0.5596,-1.25 -1.25,-1.25c-0.6904,0 -1.25,0.5596 -1.25,1.25c0,0.6904 0.5596,1.25 1.25,1.25c0.6904,0 1.25,-0.5596 1.25,-1.25zM15.8127,6.25h-1.0627v4h3.9866l-1.8265,-3.34857c-0.219,-0.40157 -0.6399,-0.65143 -1.0974,-0.65143zM5.5,16.25c-0.69036,0 -1.25,0.5596 -1.25,1.25c0,0.6904 0.55964,1.25 1.25,1.25c0.69036,0 1.25,-0.5596 1.25,-1.25c0,-0.6904 -0.55964,-1.25 -1.25,-1.25zM8.75,9c0,-0.41421 -0.33579,-0.75 -0.75,-0.75c-0.41421,0 -0.75,0.33579 -0.75,0.75v1.25h-1.25c-0.41421,0 -0.75,0.3358 -0.75,0.75c0,0.4142 0.33579,0.75 0.75,0.75h1.25v1.25c0,0.4142 0.33579,0.75 0.75,0.75c0.41421,0 0.75,-0.3358 0.75,-0.75v-1.25h1.25c0.4142,0 0.75,-0.3358 0.75,-0.75c0,-0.4142 -0.3358,-0.75 -0.75,-0.75h-1.25z" fill="#002B51"/>
</svg>

<svg width="24" height="24" viewBox="0 0 24 24" fill="none" xmlns="http://www.w3.org/2000/svg">
<path fill-rule="evenodd" clip-rule="evenodd" d="M0.75 6.5C0.75 5.5335 1.5335 4.75 2.5 4.75H14H15.8127C16.8191 4.75 17.7451 5.29969 18.2269 6.18316L20.6232 10.5763L22.8444 13.2417C23.1065 13.5562 23.25 13.9527 23.25 14.3621V16.5C23.25 17.4665 22.4665 18.25 21.5 18.25H21.1465C20.82 19.4043 19.7588 20.25 18.5 20.25C17.2412 20.25 16.18 19.4043 15.8535 18.25H14H8.14648C7.82002 19.4043 6.75878 20.25 5.5 20.25C4.24122 20.25 3.17998 19.4043 2.85352 18.25H2.5C1.5335 18.25 0.75 17.4665 0.75 16.5V6.5ZM19.75 17.5C19.75 16.8096 19.1904 16.25 18.5 16.25C17.8096 16.25 17.25 16.8096 17.25 17.5C17.25 18.1904 17.8096 18.75 18.5 18.75C19.1904 18.75 19.75 18.1904 19.75 17.5ZM15.8127 6.25H14.75V10.25H18.7366L16.9101 6.90143C16.6911 6.49986 16.2702 6.25 15.8127 6.25ZM5.5 16.25C4.80964 16.25 4.25 16.8096 4.25 17.5C4.25 18.1904 4.80964 18.75 5.5 18.75C6.19036 18.75 6.75 18.1904 6.75 17.5C6.75 16.8096 6.19036 16.25 5.5 16.25ZM8.75 9C8.75 8.58579 8.41421 8.25 8 8.25C7.58579 8.25 7.25 8.58579 7.25 9V10.25H6C5.58579 10.25 5.25 10.5858 5.25 11C5.25 11.4142 5.58579 11.75 6 11.75H7.25V13C7.25 13.4142 7.58579 13.75 8 13.75C8.41421 13.75 8.75 13.4142 8.75 13V11.75H10C10.4142 11.75 10.75 11.4142 10.75 11C10.75 10.5858 10.4142 10.25 10 10.25H8.75V9Z" fill="#002B51"/>
</svg>
